X: 260
T: New Hill Country (The)
C: B.Black 12/07
N: 142249
R: jig
M: 6/8
Q: 1/8=340
L: 1/8
K: Dmix
A | "D"Add "C"cAG | "Am"AGE EDC | "D"DFA "C"cBc | "Am"edc "D"d2 A |
"D"Add "C"cAG |"Am"AGE EDC | "D"DFA "G"GAB | "A7"AGE "D"D2 :|
A | "D"Add "C"cee | "D"dfd "C"efg | "D"afd "C"ceg  | "D"fdc d2 A |
"D"Add "C"cee | "D"dfd "C"efg | "D"afd "G"Bdg | "A"e^cA "D"d2 :|
%%%%%%%%%%%%%%%%%%%%%%%%%%%%%
